!!!OTL: 589. Fahr immer dahin.
!!!ARE: Europa, Mitteleuropa, Deutschland, Schwaben
!!!SCT: E0589
!!!TXL: @@DE
!!!YEM: Copyright 1995, estate of Helmut Schaffrath.
**kern	**text
*ICvox	*
*M3/8	*
*k[b-]	*
*F:	*
!LO:TX:a:t=Allegretto.	!
!LO:TX:a:t=Schwäbiſch. Silcher, 9, 3.	!
{8c	Mein
=1	=1
8.f	Schätʒ-
16f	-chen
8f	will
=2	=2
8.a	wan-
16g	-dern,
8f	frag
=3	=3
4cc	nichts
8cc	dar-
=4	=4
4cc}	-nach,
{8ff	ich
=5	=5
4cc	weiß
16a	ei-
16a	-nen
=6	=6
8.b-/	An-
16a	-dern,
8g	der
=7	=7
8.a	geht
16a	mir
8a	ſchon
=8	=8
4a}	nach;
{16fL	ich
16aJ	.
=9	=9
4cc	hab
16cc	ei-
16cc	-nen
=10	=10
8.cc	An-
16cc	-dern,
8ff	der
=11	=11
8.dd	liegt
16dd	mir
8dd	im
=12	=12
4dd}	Sinn;
{8dd	drum
=13	=13
8.cc	her-
16dd	-ʒi
8cc	ges
=14	=14
8cc	Schätʒchen,
8b-	.
8a	fahr
=15	=15
8.a	im-
16g	-mer
8g	da-
=16	=16
4g}	-hin!
{16fL	Drum
16aJ	.
=17	=17
8cc	her-
8cc	-ʒi-
8a	-ges
=18	=18
8b-/	Schätʒ-
8b-/	-chen,
8g	drum
=19	=19
8cc	her-
8cc	-ʒi-
8a	-ges
=20	=20
8b-/	Schätʒ-
8b-/	-chen
8g	fahr
=21	=21
8.a	im-
16a	-mer
8a	da-
=22	=22
4a;}	-hin!
==	==
!!!AGN: Liebes - Lied, Trennung
!!!ONB: ESAC (Essen Associative Code) Database: ERK1
!!!AMT: simple triple
!!!AIN: vox
!!!EED: Helmut Schaffrath
!!!EEV: 1.0
!!!GTL: Liebeslieder [Neuere (aus dem 18. bis 19. Jahrh.) - Liebeslust]
!!!URL-scan: https://rosdok.uni-rostock.de/mcrviewer/recordIdentifier/rosdok_ppn745177662/iview2/phys_0416.iview2?x=-128.77276441889308&y=306.26130757154897&scale=0.5870222003877485&rotation=0&layout=singlePageLayout
!!!ENC: Anna Maria Matuszewska
!!!EEV: 2024/11/12
*-	*-
